X: 27
T:Old Joe's Jig
T:Port sheain sheosaima
M:6/8
L:1/8
Q:160
K:D
|e | ~f2 A AFA | BAF A2 A | BdB AFA | Bcd efg | 
|~f2 A AFA | BAF A2 d | B/2c/2dB AFA | Bdc d2 :|
|: e | fgf efe | dBA d2 e | faa afe | faa b2 a | 
|fgf efe | dBA d2 e | ~f2 A AFA | Bdc d2 :|
